public/icons/chevron.svg

<svg width="96" height="96" viewBox="0 0 96 96" fill="none" xmlns="http://www.w3.org/2000/svg">
    <circle cx="48" cy="48" r="46.7013" transform="matrix(-1 0 0 1 96 0)" fill="#A5958B"
        fill-opacity="0.1" stroke="#E2E2E2" strokeWidth="2.59735" />
    <path
        d="M42.576 48.1206C41.8153 48.8813 41.8153 50.1148 42.576 50.8755L54.9731 63.2726C55.7338 64.0333 56.9673 64.0333 57.728 63.2726C58.4888 62.5118 58.4888 61.2784 57.728 60.5177L46.7084 49.498L57.728 38.4784C58.4888 37.7177 58.4888 36.4843 57.728 35.7235C56.9673 34.9628 55.7338 34.9628 54.9731 35.7235L42.576 48.1206ZM47.9492 49.498V47.55H43.9535V49.498V51.4461H47.9492V49.498Z"
        fill="#A5958B" />
</svg>

<svg xmlns="http://www.w3.org/2000/svg" width="96" height="96" fill="none"><circle cx="48" cy="48" r="46.701" fill="#A5958B" fill-opacity=".1" stroke="#E2E2E2" transform="matrix(-1 0 0 1 96 0)"/><path fill="#A5958B" d="M42.576 48.12a1.95 1.95 0 0 0 0 2.756l12.397 12.397a1.948 1.948 0 0 0 2.755-2.755l-11.02-11.02 11.02-11.02a1.948 1.948 0 1 0-2.755-2.755L42.576 48.121Zm5.373 1.378V47.55h-3.995v3.896h3.995v-1.948Z"/></svg>
